X:3
T:I'll Go To Sleep
T:Act 1 Scene 1 from 'Don John of Austria' 1847
C:music Isaac Nathan 1791-1864
C:lyrics Jacob Levi Montefiore 1819-1885
C:Royal Victoria Theatre, Sydney, NSW
S:https://nla.gov.au:443/tarkine/nla.obj-166020148
O:Australia
R:Lullaby
Q:"adagio" 1/4=90
M:6/8
L:1/8
K:Cmaj
[I:MIDI=program 59]C/2D/2|E2E_E2E/2E/2 | =E2EG2F/2E/2 | E/2 D3/2 D_E2E | 
w:When a man has tiol'd thro the live long day, 'Till his spirits *are worn with
D2GD2z/2D/2 | EEE_E2E | =E2c^G2G/2G/2 | 
w:care a-way. From what can his soul such com-fort reap as from
ABc(cA)^F | (DE) ^FG2z | A2DG2z|c2^FG2G | 
w:ta-king a draught * of bal-*my sleep. Ba-lmy sleep. Ba-lmy sleep. From
G E c (BA) G | G/2 C/4D/4E/4F/4G/4A/4 B/4c/4d/4c/4 A2c/2c/2 | 
w:what can his soul* such com - -----fort ***reap as from
e/2c/2 E GA2G | GD G C2z | F2B,C2z | F2B,C2z| A2G(C3 | C3C2)z :| 
w:tak-*ing a draught of bal--my sleep. Bal-my sleep. Bal-my sleep. Bal-my sle--ep
W: 
W:I'm sleepy I scarcely can open my eyes
W:Oh dear do you know where the soul of sleep lies
W:Ah it's all very fine through my lashes to peep
W:But I can't keep awake so I'll go to sleep, go to sleep, go to sleep
W:Ah it's all very fine through my lashes to peep
W:But I can't keep awake so I'll go to sleep, go to sleep, go to sleep

